images/hoppscotch-self-host-light.svg

<svg width="434" height="196" viewBox="0 0 434 196" fill="none" xmlns="http://www.w3.org/2000/svg">
<g clip-path="url(#clip0_93_27)">
<mask id="mask0_93_27" style="mask-type:luminance" maskUnits="userSpaceOnUse" x="0" y="0" width="434" height="196">
<path d="M417.5 0.5H16.5C7.66344 0.5 0.5 7.66344 0.5 16.5V179.5C0.5 188.337 7.66344 195.5 16.5 195.5H417.5C426.337 195.5 433.5 188.337 433.5 179.5V16.5C433.5 7.66344 426.337 0.5 417.5 0.5Z" fill="white"/>
</mask>
<g mask="url(#mask0_93_27)">
<path d="M417.5 0.5H16.5C7.66344 0.5 0.5 7.66344 0.5 16.5V179.5C0.5 188.337 7.66344 195.5 16.5 195.5H417.5C426.337 195.5 433.5 188.337 433.5 179.5V16.5C433.5 7.66344 426.337 0.5 417.5 0.5Z" fill="#00D196"/>
</g>
<path d="M200.662 71.591C204.975 69.6448 210.784 68.5 217.062 68.5C223.341 68.5 229.121 69.6449 233.406 71.5935C237.518 73.4633 241 76.5 241 80.5V80.5037C240.999 81.1954 240.613 82.24 239.463 83.5312C238.339 84.794 236.636 86.1135 234.429 87.3143C230.02 89.7128 223.849 91.5 217 91.5C210.151 91.5 203.98 89.7128 199.571 87.3143C197.364 86.1135 195.661 84.794 194.537 83.5312C193.385 82.2376 193 81.1915 193 80.5C193 76.4465 196.531 73.455 200.662 71.591Z" fill="white"/>
<path d="M236.34 90.8278C237.539 90.176 238.647 89.3584 239.641 88.4648C240.148 88.0095 241 88.3535 241 89.0348V98.7499C241 99.4414 240.615 100.238 239.463 101.531C238.339 102.794 236.636 104.113 234.429 105.314C230.02 107.713 223.849 109.5 217 109.5C210.151 109.5 203.98 107.713 199.571 105.314C197.364 104.113 195.661 102.794 194.537 101.531C193.385 100.238 193 99.4414 193 98.7499V89.0348C193 88.3535 193.852 88.0095 194.359 88.4648C195.354 89.3583 196.461 90.176 197.66 90.8278C202.661 93.5487 209.49 95.4999 217 95.4999C224.51 95.4999 231.339 93.5487 236.34 90.8278Z" fill="white"/>
<path d="M194.359 106.465C193.852 106.01 193 106.354 193 107.035V116.5C193 120.528 196.501 123.521 200.616 125.392C204.912 127.344 210.707 128.5 217 128.5C223.293 128.5 229.088 127.344 233.384 125.392C237.499 123.521 241 120.528 241 116.5V107.035C241 106.354 240.148 106.01 239.641 106.465C238.647 107.358 237.539 108.176 236.34 108.828C231.339 111.549 224.51 113.5 217 113.5C209.49 113.5 202.661 111.549 197.66 108.828C196.461 108.176 195.354 107.358 194.359 106.465Z" fill="white"/>
</g>
<defs>
<clipPath id="clip0_93_27">
<rect width="434" height="195" fill="white" transform="translate(0 0.5)"/>
</clipPath>
</defs>
</svg>

<svg xmlns="http://www.w3.org/2000/svg" width="434" height="196" fill="none" viewBox="0 0 434 196"><g clip-path="url(#a)"><mask id="b" width="434" height="196" x="0" y="0" maskUnits="userSpaceOnUse" style="mask-type:luminance"><path fill="#fff" d="M417.5.5h-401C7.663.5.5 7.663.5 16.5v163c0 8.837 7.163 16 16 16h401c8.837 0 16-7.163 16-16v-163c0-8.837-7.163-16-16-16Z"/></mask><g mask="url(#b)"><path fill="#00D196" d="M417.5.5h-401C7.663.5.5 7.663.5 16.5v163c0 8.837 7.163 16 16 16h401c8.837 0 16-7.163 16-16v-163c0-8.837-7.163-16-16-16Z"/></g><path fill="#fff" d="M200.662 71.591c4.313-1.946 10.122-3.091 16.4-3.091 6.279 0 12.059 1.145 16.344 3.094C237.518 73.464 241 76.5 241 80.5v.004c-.001.691-.387 1.736-1.537 3.027-1.124 1.263-2.827 2.582-5.034 3.783C230.02 89.713 223.849 91.5 217 91.5c-6.849 0-13.02-1.787-17.429-4.186-2.207-1.2-3.91-2.52-5.034-3.783-1.152-1.293-1.537-2.34-1.537-3.031 0-4.053 3.531-7.045 7.662-8.909Z"/><path fill="#fff" d="M236.34 90.828a17.446 17.446 0 0 0 3.301-2.363c.507-.456 1.359-.112 1.359.57v9.715c0 .691-.385 1.488-1.537 2.781-1.124 1.263-2.827 2.582-5.034 3.783-4.409 2.399-10.58 4.186-17.429 4.186-6.849 0-13.02-1.787-17.429-4.186-2.207-1.201-3.91-2.52-5.034-3.783-1.152-1.293-1.537-2.09-1.537-2.781v-9.715c0-.681.852-1.025 1.359-.57.995.893 2.102 1.711 3.301 2.363 5.001 2.72 11.83 4.672 19.34 4.672s14.339-1.951 19.34-4.672Z"/><path fill="#fff" d="M194.359 106.465c-.507-.455-1.359-.111-1.359.57v9.465c0 4.028 3.501 7.021 7.616 8.892 4.296 1.952 10.091 3.108 16.384 3.108 6.293 0 12.088-1.156 16.384-3.108 4.115-1.871 7.616-4.864 7.616-8.892v-9.465c0-.681-.852-1.025-1.359-.57-.994.893-2.102 1.711-3.301 2.363-5.001 2.721-11.83 4.672-19.34 4.672s-14.339-1.951-19.34-4.672c-1.199-.652-2.306-1.47-3.301-2.363Z"/></g><defs><clipPath id="a"><path fill="#fff" d="M0 .5h434v195H0z"/></clipPath></defs></svg>
